X:841
T:Sir Archibald Dunbar
R:Strathspey
B:The Athole Collection
M:C|
L:1/8
K:D
F|D/D/D F>D G>E =C>E|D/D/D F>D A>DF>D|A>DF>D G>E=C>E|
D<d A>F D/D/D D:|
|:f|d<d f>d g>e=c>e|d<d f>d a>df>d|1 a>df>d ge=ce|D<d A>F D/D/D D:|2
a>df>d g>e=c>e|df d/d/d d||
